img/usdt.svg

<svg width="26" height="26" viewBox="0 0 26 26" fill="none" xmlns="http://www.w3.org/2000/svg">
<path opacity="0.2" d="M25.9295 12.9998C25.9295 20.1417 20.14 25.9314 12.9982 25.9314C5.85625 25.9314 0.0666504 20.1417 0.0666504 12.9998C0.0666504 5.85795 5.85625 0.0683594 12.9982 0.0683594C20.1399 0.0683594 25.9295 5.85795 25.9295 12.9998" fill="#00A478"/>
<path d="M11.672 12.7736V10.5113H8.60364V8.52832H17.1779V10.5393H14.1095V12.7736H11.672Z" fill="#00A478"/>
<path fill-rule="evenodd" clip-rule="evenodd" d="M7.28455 13.0248C7.28455 12.2707 9.75072 11.6562 12.8191 11.6562C15.8875 11.6562 18.3537 12.2707 18.3537 13.0248C18.3537 13.7789 15.8875 14.3934 12.8191 14.3934C9.75072 14.3934 7.28455 13.7789 7.28455 13.0248ZM17.8948 13.0248C17.6941 12.7455 16.0309 11.8797 12.8191 11.8797C9.60734 11.8797 7.9441 12.7176 7.74337 13.0248C7.9441 13.3041 9.60734 13.723 12.8191 13.723C16.0595 13.723 17.6941 13.3041 17.8948 13.0248Z" fill="#00A478"/>
<path d="M14.1095 13.4715V11.9074C13.708 11.8795 13.2779 11.8516 12.8477 11.8516C12.4463 11.8516 12.0735 11.8516 11.7007 11.8795V13.4436C12.0448 13.4436 12.4463 13.4715 12.8477 13.4715C13.2779 13.4994 13.708 13.4994 14.1095 13.4715Z" fill="#00A478"/>
<path d="M12.8191 14.3928C12.4176 14.3928 12.0448 14.3928 11.672 14.3648V18.5264H14.0808V14.3369C13.6793 14.3648 13.2492 14.3928 12.8191 14.3928Z" fill="#00A478"/>
</svg>

<svg width="26" height="26" fill="none" xmlns="http://www.w3.org/2000/svg"><path opacity=".2" d="M25.93 13c0 7.142-5.79 12.931-12.932 12.931S.067 20.141.067 13C.067 5.858 5.857.068 12.998.068 20.14.068 25.93 5.858 25.93 13" fill="#00A478"/><path d="M11.672 12.774V10.51H8.604V8.528h8.574v2.011h-3.069v2.235h-2.437z" fill="#00A478"/><path fill-rule="evenodd" clip-rule="evenodd" d="M7.285 13.025c0-.754 2.466-1.369 5.534-1.369 3.068 0 5.535.615 5.535 1.369s-2.466 1.368-5.535 1.368c-3.068 0-5.534-.614-5.534-1.368zm10.61 0c-.2-.28-1.864-1.145-5.076-1.145-3.212 0-4.875.838-5.076 1.145.201.28 1.864.698 5.076.698 3.24 0 4.875-.419 5.076-.698z" fill="#00A478"/><path d="M14.11 13.472v-1.565a18.248 18.248 0 0 0-1.262-.055c-.402 0-.775 0-1.147.027v1.565c.344 0 .745.027 1.147.027.43.028.86.028 1.261 0zM12.82 14.393c-.402 0-.775 0-1.148-.028v4.161h2.409v-4.19c-.402.029-.832.057-1.262.057z" fill="#00A478"/></svg>
